Origami/64x64/apps/qtractor.svg

<svg width="64" height="64" version="1" xmlns="http://www.w3.org/2000/svg">
 <defs>
  <radialGradient id="radialGradient3035" cx="198.31" cy="109.06" r="63.508" fx="143.62" fy="122.04" gradientTransform="matrix(.18895003 -.01640931 .01949499 .25509921 8.0298344 -2.3387756)" gradientUnits="userSpaceOnUse">
   <stop stop-color="#1d1100" stop-opacity=".667" offset="0"/>
   <stop stop-color="#4f340c" stop-opacity=".302" offset=".527"/>
   <stop stop-color="#3d3001" stop-opacity="0" offset="1"/>
  </radialGradient>
 </defs>
 <path d="m36.665713 18.001209 1.333979 12.631806s-8.823664-1.078544-11.999815 1.26314c-2.995954 2.207966-3.999939 10.103845-3.999939 10.103845h-3.999938s0.250076-8.998662 2.666559-12.631406c3.554345-5.343118 15.999754-11.368225 15.999754-11.368225z" style="fill:#c6ae91"/>
 <path d="m36.667969 18s-12.446055 6.025223-16 11.369141c-2.416563 3.631944-2.667969 12.630859-2.667969 12.630859h0.052734c0.117576-2.202422 0.611634-8.619573 2.615235-11.630859 3.553945-5.343918 16-11.369141 16-11.369141l1.226562 11.625c0.049938 0.004203 0.105469 0.007812 0.105469 0.007812l-1.332031-12.632812z" style="fill:#ffffff;opacity:.2"/>
 <ellipse transform="matrix(.96307704 -.26922595 .24875798 .96856568 0 0)" cx="39.811" cy="34.812" rx="12.747" ry="17.19" style="fill:#d1bda5"/>
 <path d="m37.529815 9.1122641c-3.185933 3.1991489-3.620524 12.188072 0.187396 21.54251 3.782321 9.217922 15.249681 8.323554 18.103621 5.058948 2.879539-3.127487 6.940054-10.962821-0.519549-22.18106-7.408445-10.943404-14.483496-7.6449703-17.771428-4.4217999z" style="fill-rule:evenodd;fill:url(#radialGradient3035)"/>
 <rect x="14" y="38" width="22" height="2" rx="2.644" ry="2"/>
 <path d="m10.6162 40.000308h28.768001c1.449999 0 2.615999 1.003985 2.615999 2.249966v13.499792c0 1.245981-1.166 2.249965-2.615999 2.249965h-28.768001c-1.4496 0-2.616-1.003984-2.616-2.249965v-13.499792c0-1.245981 1.1664-2.249966 2.6154-2.249966z" style="fill:#c6ae91"/>
 <rect x="14" y="42" width="22" height="14" rx="1.692" ry="1.75" style="fill:#c69191"/>
 <path d="m10.617188 40c-1.449035 0-2.617188 1.004019-2.617188 2.25v1c0-1.245981 1.168153-2.25 2.617188-2.25h28.765624c1.450035 0 2.617188 1.004019 2.617188 2.25v-1c0-1.245981-1.167153-2.25-2.617188-2.25h-28.765624z" style="fill:#ffffff;opacity:.2"/>
 <path d="m45.240234 6a17.178779 12.744466 77.015738 0 0 -2.523437 0.3476562 17.178779 12.744466 77.015738 0 0 -8.701172 14.707032 17.178779 12.744466 77.015738 0 1 8.701172 -13.707032 17.178779 12.744466 77.015738 0 1 2.523437 -0.3476562 17.178779 12.744466 77.015738 0 1 14.03711 13.554688 17.178779 12.744466 77.015738 0 1 0.705078 4.914062 17.178779 12.744466 77.015738 0 0 -0.705078 -5.914062 17.178779 12.744466 77.015738 0 0 -14.03711 -13.554688z" style="fill:#ffffff;opacity:.2"/>
 <path d="m59.980469 25.982422a17.178902 12.739534 77.034676 0 1 -8.703125 13.666016 17.178902 12.739534 77.034676 0 1 -15.085938 -9.160157c-2.734652-0.181937-7.896577-0.284384-10.189453 1.40625-1.569914 1.157983-2.560095 3.809505-3.164062 6.105469h-0.232422c-0.07605 0.334347-0.173357 0.70466-0.232422 1h0.464844c0.603967-2.295964 1.594148-4.947486 3.164062-6.105469 2.292876-1.690634 7.454801-1.588187 10.189453-1.40625a17.178902 12.739534 77.034676 0 0 15.085938 9.160157 17.178902 12.739534 77.034676 0 0 8.703125 -14.666016zm-51.980469 29.767578v1c0 1.245981 1.1682661 2.25 2.617188 2.25h28.763671c1.449919 0 2.617188-1.004019 2.617188-2.25v-1c0 1.245981-1.167269 2.25-2.617188 2.25h-28.763671c-1.4489219 0-2.617188-1.004019-2.617188-2.25z" style="opacity:.2"/>
</svg>

<svg xmlns="http://www.w3.org/2000/svg" width="64" height="64" version="1">
 <defs>
  <radialGradient id="radialGradient3035" cx="198.31" cy="109.06" r="63.508" fx="143.62" fy="122.04" gradientTransform="matrix(0.18895003,-0.01640931,0.01949499,0.25509921,8.0298344,-2.3387756)" gradientUnits="userSpaceOnUse">
   <stop offset="0" stop-color="#1d1100" stop-opacity=".667"/>
   <stop offset=".527" stop-color="#4f340c" stop-opacity=".302"/>
   <stop offset="1" stop-color="#3d3001" stop-opacity="0"/>
  </radialGradient>
 </defs>
 <path style="fill:#c6ae91" d="m 36.665713,18.001209 1.333979,12.631806 c 0,0 -8.823664,-1.078544 -11.999815,1.26314 C 23.003923,34.104121 21.999938,42 21.999938,42 L 18,42 c 0,0 0.250076,-8.998662 2.666559,-12.631406 3.554345,-5.343118 15.999754,-11.368225 15.999754,-11.368225 z"/>
 <path style="opacity:0.2;fill:#ffffff" d="M 36.667969 18 C 36.667969 18 24.221914 24.025223 20.667969 29.369141 C 18.251406 33.001085 18 42 18 42 L 18.052734 42 C 18.17031 39.797578 18.664368 33.380427 20.667969 30.369141 C 24.221914 25.025223 36.667969 19 36.667969 19 L 37.894531 30.625 C 37.944469 30.629203 38 30.632812 38 30.632812 L 36.667969 18 z"/>
 <ellipse style="fill:#d1bda5" cx="39.811" cy="34.812" rx="12.747" ry="17.19" transform="matrix(0.96307704,-0.26922595,0.24875798,0.96856568,0,0)"/>
 <path style="fill:url(#radialGradient3035);fill-rule:evenodd;pt" d="m 37.529815,9.1122641 c -3.185933,3.1991489 -3.620524,12.1880719 0.187396,21.5425099 3.782321,9.217922 15.249681,8.323554 18.103621,5.058948 2.879539,-3.127487 6.940054,-10.962821 -0.519549,-22.18106 C 47.892838,2.5892585 40.817787,5.8876917 37.529855,9.1108621 Z"/>
 <rect width="22" height="2" x="14" y="38" rx="2.644" ry="2"/>
 <path style="fill:#c6ae91" d="m 10.6162,40.000308 28.768001,0 c 1.449999,0 2.615999,1.003985 2.615999,2.249966 l 0,13.499792 c 0,1.245981 -1.166,2.249965 -2.615999,2.249965 l -28.768001,0 c -1.4496,0 -2.616,-1.003984 -2.616,-2.249965 l 0,-13.499792 c 0,-1.245981 1.1664,-2.249966 2.6154,-2.249966 z"/>
 <rect style="fill:#c69191" width="22" height="14" x="14" y="42" rx="1.692" ry="1.75"/>
 <path style="opacity:0.2;fill:#ffffff" d="M 10.617188 40 C 9.168153 40 8 41.004019 8 42.25 L 8 43.25 C 8 42.004019 9.168153 41 10.617188 41 L 39.382812 41 C 40.832847 41 42 42.004019 42 43.25 L 42 42.25 C 42 41.004019 40.832847 40 39.382812 40 L 10.617188 40 z"/>
 <path style="opacity:0.2;fill:#ffffff" d="M 45.240234 6 A 17.178779 12.744466 77.015738 0 0 42.716797 6.3476562 A 17.178779 12.744466 77.015738 0 0 34.015625 21.054688 A 17.178779 12.744466 77.015738 0 1 42.716797 7.3476562 A 17.178779 12.744466 77.015738 0 1 45.240234 7 A 17.178779 12.744466 77.015738 0 1 59.277344 20.554688 A 17.178779 12.744466 77.015738 0 1 59.982422 25.46875 A 17.178779 12.744466 77.015738 0 0 59.277344 19.554688 A 17.178779 12.744466 77.015738 0 0 45.240234 6 z"/>
 <path style="opacity:0.2" d="M 59.980469,25.982422 A 17.178902,12.739534 77.034676 0 1 51.277344,39.648438 17.178902,12.739534 77.034676 0 1 36.191406,30.488281 C 33.456754,30.306344 28.294829,30.203897 26.001953,31.894531 24.432039,33.052514 23.441858,35.704036 22.837891,38 l -0.232422,0 c -0.07605,0.334347 -0.173357,0.70466 -0.232422,1 l 0.464844,0 c 0.603967,-2.295964 1.594148,-4.947486 3.164062,-6.105469 2.292876,-1.690634 7.454801,-1.588187 10.189453,-1.40625 a 17.178902,12.739534 77.034676 0 0 15.085938,9.160157 17.178902,12.739534 77.034676 0 0 8.703125,-14.666016 z M 8,55.75 l 0,1 C 8,57.995981 9.1682661,59 10.617188,59 l 28.763671,0 c 1.449919,0 2.617188,-1.004019 2.617188,-2.25 l 0,-1 c 0,1.245981 -1.167269,2.25 -2.617188,2.25 L 10.617188,58 C 9.1682661,58 8,56.995981 8,55.75 Z"/>
</svg>
